X: 819
T: The Old Man's Delight
N:"Collected by J.Kennedy"
B:O'Neill's 819
Z:Transcribed by Dan G. Petersen, dangp@post6.tele.dk
M:6/8
L:1/8
K:A
(a/f/)|ecA A2c|BGE E2(a/f/)|ecA Ace|fba g2(g/f/)|
ecA ABc|BGE E2E|FGA BGE|A3 A2:|
e|cAc ece|fdf e2(a/f/)|ecA ABc|BGE E2(e/d/)|
cAc ece|fdf e2(a/f/)|ecA EFG|A3 A2:|


